X: 36840
T: Shipley, The
R: reel
M: 4/4
K: Dmajor
A2dA FADF|Addc d2de|fdBf ecAc|(3Bcd GB AFGE|
A2dA FADF|Addc defg|afdg ecfd|1 Bcde d4:|2 Bcde d2fg||
|:afdg ecfd|BecA dAFG|A2dA fAed|cdef g2fg|
afdg ecfd|BecA dAFG|A2dA FADF|1 Addc d2fg:|2 Addc d4||

